svg/fluentui-system-icons/ic_fluent_hourglass_one_quarter_16_regular.svg

<svg width="16" height="16" viewBox="0 0 16 16" fill="none" xmlns="http://www.w3.org/2000/svg">
<path d="M4.68082 1C3.80078 1 2.97854 1.68104 3.00256 2.64534C3.02789 3.66221 3.24241 4.43602 3.56894 5.05158C3.89467 5.66563 4.31655 6.09278 4.70953 6.43238C4.84535 6.54975 4.98499 6.66259 5.11219 6.76537C5.16365 6.80695 5.21307 6.84689 5.25938 6.88482C5.42799 7.0229 5.5665 7.14304 5.67961 7.26382C5.89196 7.49057 5.99965 7.7013 5.9997 8.00008C5.99975 8.29887 5.89218 8.50954 5.68003 8.73618C5.56701 8.85693 5.42858 8.97704 5.26005 9.11508C5.2136 9.15312 5.16401 9.1932 5.11237 9.23493C4.98539 9.33754 4.84585 9.4503 4.71032 9.5674C4.31737 9.90688 3.89537 10.3339 3.56921 10.9476C3.24225 11.5629 3.02698 12.3364 3.00056 13.353C2.97548 14.318 3.79815 15 4.67878 15H11.3174C12.198 15 13.0206 14.318 12.9957 13.3531C12.9694 12.3366 12.7544 11.5631 12.4279 10.9478C12.1021 10.3341 11.6805 9.90708 11.288 9.56756C11.1525 9.45041 11.0132 9.33773 10.8863 9.2351C10.8348 9.19341 10.7851 9.15323 10.7388 9.11524C10.5704 8.97719 10.4321 8.85709 10.3192 8.73635C10.1073 8.50972 9.9997 8.29897 9.9997 8C9.9997 7.70124 10.1074 7.49055 10.3197 7.26381C10.4328 7.14303 10.5713 7.02289 10.7399 6.88481C10.7862 6.84689 10.8357 6.80694 10.8871 6.76535C11.0143 6.66258 11.154 6.54973 11.2898 6.43237C11.6828 6.09278 12.1047 5.66562 12.4304 5.05156C12.757 4.43599 12.9715 3.66216 12.9968 2.64526C13.0208 1.681 12.1985 1 11.3185 1H4.68082ZM4.00225 2.62043C3.99428 2.3007 4.27643 2 4.68082 2H11.3185C11.7229 2 12.005 2.30069 11.9971 2.6204C11.9751 3.50427 11.7913 4.12241 11.547 4.58294C11.3019 5.04498 10.9804 5.37805 10.6359 5.67574C10.5131 5.78185 10.3947 5.87758 10.273 5.97589C10.2183 6.02006 10.163 6.06475 10.1063 6.11114C9.93145 6.25435 9.75026 6.40889 9.58976 6.58028C9.25488 6.93788 8.9997 7.38151 8.9997 8C8.9997 8.61818 9.25435 9.06172 9.58883 9.41938C9.74913 9.59079 9.93009 9.74533 10.1048 9.88855C10.1615 9.93507 10.2169 9.97987 10.2717 10.0242C10.393 10.1223 10.5113 10.218 10.6338 10.3239C10.978 10.6216 11.2993 10.9546 11.5446 11.4167C11.789 11.8772 11.9731 12.4953 11.996 13.3789C12.0043 13.6989 11.7221 14 11.3174 14H4.67878C4.27408 14 3.99191 13.6989 4.00022 13.379C4.02319 12.4954 4.20756 11.8774 4.45227 11.4169C4.69779 10.9549 5.0195 10.6218 5.36407 10.3241C5.48669 10.2182 5.60496 10.1226 5.7264 10.0245C5.78128 9.98016 5.83682 9.93529 5.8937 9.8887C6.06854 9.74549 6.24967 9.59095 6.41011 9.41955C6.74488 9.0619 6.9998 8.61828 6.9997 7.99992C6.9996 7.38146 6.74439 6.93786 6.40952 6.58027C6.24902 6.40889 6.06784 6.25436 5.89298 6.11115C5.83635 6.06478 5.78105 6.0201 5.72639 5.97594C5.60469 5.87762 5.48618 5.78188 5.36338 5.67575C5.0189 5.37807 4.69744 5.045 4.45234 4.58296C4.20805 4.12243 4.02427 3.5043 4.00225 2.62043ZM6.01756 11.0808C6.05002 11.0528 6.08148 11.0261 6.11263 11H9.88505C9.91597 11.0259 9.9472 11.0524 9.97942 11.0803C10.2752 11.3361 10.4963 11.5752 10.661 11.8855C10.7919 12.1321 10.9169 12.4806 10.9706 13H5.02515C5.07896 12.481 5.20409 12.1326 5.33507 11.8861C5.49995 11.5759 5.72137 11.3367 6.01756 11.0808Z" fill="#212121"/>
</svg>

<svg xmlns="http://www.w3.org/2000/svg" width="16" height="16"><path d="M4.68 1c-.88 0-1.701.681-1.677 1.645.025 1.017.24 1.791.566 2.407.326.614.748 1.04 1.14 1.38.136.118.276.23.403.333l.147.12c.169.138.307.258.42.379C5.893 7.49 6 7.7 6 8s-.107.51-.319.736c-.113.12-.251.241-.42.38l-.148.119a15.86 15.86 0 0 0-.402.332c-.393.34-.815.767-1.14 1.38-.328.616-.543 1.39-.57 2.406C2.976 14.318 3.799 15 4.68 15h6.638c.881 0 1.704-.682 1.679-1.647-.027-1.016-.242-1.79-.568-2.405-.326-.614-.748-1.04-1.14-1.38-.136-.118-.275-.23-.402-.333l-.147-.12a4.359 4.359 0 0 1-.42-.379C10.107 8.51 10 8.3 10 8s.108-.51.32-.736c.114-.121.252-.241.42-.38l.148-.119c.127-.102.267-.215.403-.333.393-.34.815-.766 1.14-1.38.327-.616.542-1.39.567-2.407.022-.964-.8-1.645-1.679-1.645H4.68Zm-.678 1.62c-.008-.32.274-.62.679-.62h6.638c.404 0 .686.3.678.62-.022.884-.206 1.502-.45 1.963-.245.462-.567.795-.911 1.093-.123.106-.241.202-.363.3l-.167.135a5.325 5.325 0 0 0-.516.47C9.255 6.937 9 7.38 9 8c0 .618.254 1.062.589 1.42.16.17.341.325.516.469l.167.135c.121.098.24.194.362.3.344.298.665.63.91 1.093.245.46.43 1.078.452 1.962.008.32-.274.621-.679.621H4.68c-.405 0-.687-.301-.679-.621.023-.884.208-1.502.452-1.962.246-.462.567-.795.912-1.093.123-.106.241-.201.362-.3l.168-.135c.175-.144.356-.298.516-.47.335-.357.59-.8.59-1.42 0-.618-.256-1.061-.59-1.419a5.325 5.325 0 0 0-.517-.469 32.337 32.337 0 0 0-.167-.135c-.121-.098-.24-.194-.363-.3-.344-.298-.666-.631-.91-1.093-.245-.46-.429-1.079-.45-1.963Zm2.016 8.46.095-.08h3.772l.094.08c.296.256.517.495.682.806.13.246.256.595.31 1.114H5.025c.054-.519.18-.867.31-1.114.165-.31.386-.55.683-.805Z"/></svg>
